!!! OTL: Berkowitz605
!!! Chapter: 1
!!! Section: V
!!! Page: 154
!!! Mode: 
!!! Encoder: AR
**kern
*staff1
=1-
!!pagebreak:original
*clefG2
*k[]
*C:
*M4/4
4c/
4a/
8r
8a-/
8b-\L
8cc\J
=2
8dd\L
8cc#\J
4e/
8r
8cc#\
8e/L
8cc#/J
=3
4ccn\
4f/
8r
8b-\
8a-/L
8c-/J
=4
8d-/L
8e-/J
2f/
4r
=5
!!linebreak:original
8b\L
8b-\J
4dn/
8r
8b-\
8a/L
8b-/J
=6
4a-/
4c/
8r
8Bn/
8d/L
8g/J
=7
4g-/
8f/L
8f#/J
8b/L
8gn/
8e-/
8B/J
=8
2.g#/
4r
==
*-
